svgs/sharp-light/laptop.svg

<svg xmlns="http://www.w3.org/2000/svg" viewBox="0 0 640 512"><!--! Font Awesome Pro 6.4.0 by @fontawesome - https://fontawesome.com License - https://fontawesome.com/license (Commercial License) Copyright 2023 Fonticons, Inc. --><path d="M544 64H96V352H64V64 32H96 544h32V64 352H544V64zM61.3 448H578.7L608 418.7V416H32v2.7L61.3 448zM640 384v32 16l-48 48H48L0 432V416 384H32 608h32z"/></svg>

<svg xmlns="http://www.w3.org/2000/svg" viewBox="0 0 640 512"><!--! Font Awesome Pro 6.6.0 by @fontawesome - https://fontawesome.com License - https://fontawesome.com/license (Commercial License) Copyright 2024 Fonticons, Inc. --><path d="M544 64L96 64l0 288-32 0L64 64l0-32 32 0 448 0 32 0 0 32 0 288-32 0 0-288zM61.3 448l517.5 0L608 418.7l0-2.7L32 416l0 2.7L61.3 448zM640 384l0 32 0 16-48 48L48 480 0 432l0-16 0-32 32 0 576 0 32 0z"/></svg>
